assets/svgs/misc-grey/MiscGrey18.svg

<svg width="45" height="34" viewBox="0 0 45 34" fill="none" xmlns="http://www.w3.org/2000/svg">
<path fill-rule="evenodd" clip-rule="evenodd" d="M14.653 30.1099C14.653 28.4399 16.001 27.0799 17.658 27.0799C19.315 27.0799 20.663 28.4399 20.663 30.1099C20.663 31.7699 19.315 33.1299 17.658 33.1299C16.001 33.1299 14.653 31.7699 14.653 30.1099ZM32.776 30.1099C32.776 28.4399 34.124 27.0799 35.781 27.0799C37.438 27.0799 38.786 28.4399 38.786 30.1099C38.786 31.7699 37.438 33.1299 35.781 33.1299C34.124 33.1299 32.776 31.7699 32.776 30.1099ZM37.754 20.8399H15.137L11.809 8.11995L40.677 8.14995L37.754 20.8399ZM43.735 5.71995C43.451 5.35995 43.02 5.15995 42.563 5.14995L11.023 5.11995L10.062 1.43995C9.88901 0.779946 9.29301 0.319946 8.61101 0.319946H1.53601C0.707011 0.319946 0.0360107 0.989946 0.0360107 1.81995C0.0360107 2.64995 0.707011 3.31995 1.53601 3.31995H7.45301L8.40601 6.95995C8.41101 6.98995 8.41701 7.00995 8.42301 7.02995L12.527 22.7199C12.7 23.3799 13.296 23.8399 13.979 23.8399H38.947C39.646 23.8399 40.252 23.3599 40.409 22.6799L44.023 6.98995C44.126 6.54995 44.02 6.07995 43.735 5.71995Z" fill="#1A1919"/>
</svg>

<svg xmlns="http://www.w3.org/2000/svg" fill="none" viewBox="0 0 45 34"><path fill="#1A1919" fill-rule="evenodd" d="M14.653 30.11c0-1.67 1.348-3.03 3.005-3.03 1.657 0 3.005 1.36 3.005 3.03 0 1.66-1.348 3.02-3.005 3.02-1.657 0-3.005-1.36-3.005-3.02zm18.123 0c0-1.67 1.348-3.03 3.005-3.03 1.657 0 3.005 1.36 3.005 3.03 0 1.66-1.348 3.02-3.005 3.02-1.657 0-3.005-1.36-3.005-3.02zm4.978-9.27H15.137L11.809 8.12l28.868.03-2.923 12.69zm5.981-15.12a1.523 1.523 0 00-1.172-.57l-31.54-.03-.961-3.68A1.5 1.5 0 008.611.32H1.536c-.829 0-1.5.67-1.5 1.5s.671 1.5 1.5 1.5h5.917l.953 3.64c.005.03.011.05.017.07l4.104 15.69a1.5 1.5 0 001.452 1.12h24.968c.699 0 1.305-.48 1.462-1.16l3.614-15.69c.103-.44-.003-.91-.288-1.27z" clip-rule="evenodd"/></svg>
